lib/brands/icons/weibo.svg

<svg xmlns="http://www.w3.org/2000/svg" fill="none" aria-hidden="true" viewBox="0 0 48 48"><g id="weibo-Icon"><g id="weibo"><path id="red" fill="#E31C34" d="M14.6882 6.11261C10.5834 4.40045 0 12.7318 0 19.7569C0 23.8696 5.20067 27.9999 13.7959 27.9999C24.3257 27.9999 29.3943 20.8336 27.6453 17.321C26.5301 15.0813 23.7011 14.8852 23.5226 14.285C23.4071 13.8967 24.8254 11.5668 23.2906 10.3136C20.6728 8.17612 16.2231 11.2491 15.7234 10.7019C15.4114 10.3603 16.9013 7.03569 14.6882 6.11261Z"/><path id="white" fill="white" d="M22.5352 18.9447C22.8715 22.383 18.8378 25.5823 13.5256 26.0906C8.21335 26.5989 3.63427 24.2238 3.29792 20.7856C2.96156 17.3473 6.9953 14.148 12.3075 13.6397C17.6197 13.1314 22.1988 15.5065 22.5352 18.9447Z"/><path id="black" fill="black" fill-rule="evenodd" d="M17.1354 19.1216C17.7856 21.4196 16.0964 23.8959 13.3623 24.6527C10.6282 25.4094 7.8847 24.16 7.23446 21.862C6.58421 19.564 8.27348 17.0877 11.0075 16.331C13.7416 15.5742 16.4851 16.8237 17.1354 19.1216ZM12.2722 20.6022C12.6337 21.3712 12.1878 22.3344 11.2763 22.7535C10.3648 23.1726 9.33279 22.8889 8.9713 22.1199C8.60982 21.3509 9.05571 20.3878 9.96724 19.9686C10.8788 19.5495 11.9107 19.8332 12.2722 20.6022ZM13.4677 20.2022C13.8229 20.0389 13.9966 19.6636 13.8558 19.364C13.7149 19.0644 13.3128 18.9538 12.9576 19.1171C12.6025 19.2804 12.4287 19.6557 12.5696 19.9554C12.7104 20.255 13.1125 20.3656 13.4677 20.2022Z" clip-rule="evenodd"/><g id="orange"><path fill="#FD9940" d="M21.838 4.47733C22.3248 4.35816 22.835 4.29464 23.3618 4.29464C26.8511 4.29464 29.6797 7.09218 29.6797 10.5431C29.6797 11.3053 29.5423 12.0332 29.2915 12.7055C29.0698 13.3 29.3774 13.9597 29.9784 14.1789C30.5795 14.3982 31.2466 14.0941 31.4683 13.4996C31.8125 12.5768 31.9999 11.5803 31.9999 10.5431C31.9999 5.82488 28.1325 2 23.3618 2C22.6457 2 21.9483 2.08644 21.2806 2.24989C20.6586 2.40212 20.2793 3.02416 20.4332 3.63925C20.5871 4.25433 21.216 4.62956 21.838 4.47733Z"/><path fill="#FD9940" d="M22.863 8.48247C23.0219 8.44506 23.1888 8.42499 23.3618 8.42499C24.5446 8.42499 25.5035 9.3733 25.5035 10.5431C25.5035 10.7985 25.4583 11.0408 25.3764 11.2645C25.1583 11.8602 25.4698 12.5181 26.0722 12.7339C26.6746 12.9496 27.3398 12.6416 27.5579 12.0458C27.7302 11.5753 27.8236 11.0687 27.8236 10.5431C27.8236 8.10601 25.826 6.13035 23.3618 6.13035C23.0065 6.13035 22.6594 6.17166 22.3258 6.2502C21.7025 6.39693 21.3175 7.01559 21.4659 7.63201C21.6142 8.24844 22.2398 8.6292 22.863 8.48247Z"/></g></g></g></svg>

<svg xmlns="http://www.w3.org/2000/svg" fill="none" aria-hidden="true" viewBox="0 0 48 48"><path fill="#E31C34" d="M14.688 6.113C10.583 4.4 0 12.732 0 19.757 0 23.87 5.2 28 13.796 28c10.53 0 15.598-7.166 13.85-10.679-1.116-2.24-3.945-2.436-4.123-3.036-.116-.388 1.302-2.718-.232-3.971-2.618-2.138-7.068.935-7.568.388-.312-.342 1.178-3.666-1.035-4.59Z"/><path fill="#fff" d="M22.535 18.945c.337 3.438-3.697 6.637-9.01 7.146-5.312.508-9.89-1.867-10.227-5.305-.336-3.439 3.697-6.638 9.01-7.146 5.312-.509 9.89 1.867 10.227 5.305Z"/><path fill="#000" fill-rule="evenodd" d="M17.135 19.122c.65 2.298-1.039 4.774-3.773 5.53-2.734.757-5.477-.492-6.128-2.79-.65-2.298 1.04-4.774 3.774-5.531 2.734-.757 5.477.493 6.127 2.79Zm-4.863 1.48c.362.77-.084 1.732-.996 2.151-.911.42-1.943.136-2.305-.633-.361-.77.085-1.732.996-2.151.912-.42 1.944-.136 2.305.633Zm1.196-.4c.355-.163.529-.538.388-.838-.141-.3-.543-.41-.898-.247-.356.163-.53.539-.388.838.14.3.543.41.898.247Z" clip-rule="evenodd"/><g fill="#FD9940"><path d="M21.838 4.477a6.4 6.4 0 0 1 1.524-.182c3.49 0 6.318 2.797 6.318 6.248 0 .762-.138 1.49-.389 2.163a1.144 1.144 0 0 0 .687 1.473 1.164 1.164 0 0 0 1.49-.68A8.42 8.42 0 0 0 32 10.543C32 5.825 28.133 2 23.362 2c-.716 0-1.414.086-2.081.25a1.147 1.147 0 0 0-.848 1.39c.154.614.783.99 1.405.837Z"/><path d="M22.863 8.482a2.2 2.2 0 0 1 .499-.057c1.183 0 2.142.948 2.142 2.118 0 .256-.046.498-.128.722a1.144 1.144 0 0 0 .696 1.469 1.164 1.164 0 0 0 1.486-.688c.172-.47.266-.977.266-1.503 0-2.437-1.998-4.413-4.462-4.413-.355 0-.703.042-1.036.12a1.147 1.147 0 0 0-.86 1.382 1.16 1.16 0 0 0 1.397.85Z"/></g></svg>
